X:1
T:High Daddy
T:High Daddy
T:Dan Emmett (1863)
C:Dan Emmett (1863)
L:1/8
M:2/4
K:C
V:1 treble 
V:1
 E | AE A>G | E/A/G/E/ D>E | AE A/B/A/G/ | E A2 z/ E/ | AE A>G | E/A/G/E/ D>E | A>G A/B/c/d/ | %8
 ed d/eB/ |1 c3 G/G/ | A3- A/E/ :|2 c3 ^G/G/ | A3 || G | cc Bd | c2- c (3G/A/B/ | cc Bd | %17
 c2- c (c/d/) | e3 c/d/ | ec GE | D3 A/F/ | D3 z/ (3A/B/^c/ | dd ^ce | d3 (3A/B/^c/ | dd ^ce | %25
 d3 (^c/e/) | d3 (d/e/) | fd BG | ^GA FD | C2 z2 || %30

